src/images/single-assets/WOO.svg

<svg xmlns="http://www.w3.org/2000/svg" width="96" height="96" fill="none" viewBox="0 0 96 96"><path fill="#212630" d="M48 96C74.5097 96 96 74.5097 96 48C96 21.4903 74.5097 0 48 0C21.4903 0 0 21.4903 0 48C0 74.5097 21.4903 96 48 96Z"/><path fill="#fff" d="M80.9146 24.6128H69.9149L64.8413 42.0378H75.696L80.9146 24.6128Z"/><path fill="#fff" d="M61.1664 54.6531L55.7424 41.1776C54.5069 37.7715 51.3994 35.5213 47.9319 35.5213C44.4989 35.5213 41.4154 37.7274 40.1549 41.0854L34.513 54.6531L25.9162 24.6128H15.0854L27.9475 68.6086C28.4362 70.2617 29.8906 71.3888 31.537 71.3888H37.753C39.2909 71.3888 40.6733 70.4038 41.2435 68.9024L47.903 51.6176L54.6816 68.9235C55.2576 70.4144 56.6343 71.3888 58.1645 71.3888H64.2826C65.9232 71.3888 67.3738 70.2704 67.8672 68.6259L73.9747 47.7805H63.169L61.1664 54.6531Z"/></svg>

<svg xmlns="http://www.w3.org/2000/svg" width="96" height="96" fill="none"><path fill="#212630" d="M48 96c26.51 0 48-21.49 48-48S74.51 0 48 0 0 21.49 0 48s21.49 48 48 48"/><path fill="#fff" d="M80.915 24.613h-11L64.84 42.038h10.855zM61.166 54.653l-5.424-13.475c-1.235-3.406-4.343-5.657-7.81-5.657-3.433 0-6.517 2.206-7.777 5.564l-5.642 13.568-8.597-30.04h-10.83l12.862 43.996c.488 1.653 1.943 2.78 3.589 2.78h6.216c1.538 0 2.92-.985 3.49-2.487l6.66-17.284 6.779 17.306c.576 1.49 1.952 2.465 3.482 2.465h6.119c1.64 0 3.09-1.119 3.584-2.763l6.108-20.845H63.169z"/></svg>
